X:1
T:10. Sonate in C
T:Sonate in C
T:KV 330
T:W.A. Mozart
T:Entstanden in Wien (oder Salzburg ), 1783
T:Sonata I*)
C:Mozart
%%score { ( 1 4 ) | ( 2 3 ) }
L:1/8
Q:1/4=70
M:2/4
K:C
V:1 treble nm="Piano" snm="Pno."
V:4 treble 
V:2 treble 
V:3 treble 
V:1
!f!"^Allegro moderato""^T" !wedge!g(g3/2 f/4e/4)[Q:1/4=85]"^T" (e/4d/4c/4B/4) | Tc3/2d/4e/4 G z | %2
[Q:1/4=70]"^T" !wedge!g/!wedge!g<(g f/4)e/4[Q:1/4=85]"^T" (e/4d/4c/4B/4) | Tc3/2d/4e/4 G z | %4
[Q:1/4=80]"^T" .A/.c/.f/.a/ c' z | .G/.c/.e/.g/ !wedge!c' z |!f![Q:1/4=85]"^T"{G} g3 (Tf/e/4f/4) | %7
 x2 z2 |!p!!p! (A/c/4A/4 f/4c/4a/4f/4 c') z | (G/c/4G/4 e/4c/4g/4e/4 c') z | %10
!f! (a/g/).f/.e/ (e/d/).c/.B/ | (c/4G/4A/4B/4 c/4d/4e/4f/4 g/4a/4b/4c'/4) g/!wedge!g/ | %12
 z/4 (g/4a/4g/4) z/4 (f/4g/4f/4) z/4 (e/4f/4e/4) z/4 (d/4e/4d/4) | %13
 (c/4G/4A/4B/4 c/4d/4e/4f/4 g/4a/4b/4c'/4) g/!wedge!g/ | %14
 z/4 (g/4a/4g/4) z/4 (f/4g/4f/4) z/4 (e/4f/4e/4) z/4 (d/4e/4d/4) |!f! (c3/2d/4e/4 f/)(fg/4a/4) | %16
 (g/e/c'/)!wedge!c'/{d'} c'/b/4a/4!p!{a} g/f/4e/4 | (g>e) d z | %18
!p!{^c} d=c/4B/4A/4G/4 ^c/d/=c/4B/4A/4G/4 | (^d/e/).e/.e/ e z | %20
!mf![Q:1/4=75]"^T" (a3/2(3g/4^f/4e/4 d/).d'/.d'/.d'/ | d'-(d'/4b/4d'/4b/4[Q:1/4=85]"^T" g) z | %22
!p! (^c/d/) (=c/4B/4A/4G/4) (^c/4d/4e/4d/4 =c/4B/4A/4G/4 | ^d/)e/.e/.e/ e z | %24
!f! (a/4b/4c'/4b/4 a/4g/4^f/4e/4 d/4f/4a/4g/4 f/4e/4d/4c/4) | !wedge!B(Tc/B/4c/4 d) z | %26
!p!{e^f} (gg/>)g/ g(f/4e/4d/4c/4) |!f! B(c/B/4c/4 d) z |!p!{e^f} (gg/>)g/ g(f/4e/4d/4c/4 | %29
!f! B/)(g/4a/4 b/4a/4g/4^f/4 e/4d/4c/4B/4 A/4G/4^F/4E/4) | D (C2 B,) | %31
 z/!p! .A,/.C/.E/ (^G/A/c/e/) |[Q:1/4=75]"^T" x G2 (B/A/) | G z (d/B/!p!g/)!wedge!^f/ | %34
 .e/.d/.c/.B/ .A.B | (d/^c/=c/) z/ (B/c/d/)!wedge!^d/ | Te/>.^f/.g/.f/ .e/.=d/.=c/.B/ | %37
[Q:1/4=85]"^T" d/>B/A (d3/4e/8^f/8!p!!p! g/)f/ | .e/.d/.c/.B/ .A.B | .c"_cresc.".^c.d.^d | %40
 (e/>E/)(c/>A/) G{B}[^FA] | G z/4 (g/4a/4g/4 e/4g/4a/4g/4 c'/4g/4e/4c/4) | %42
[Q:1/4=75]"^T" !wedge!g/!wedge!g/ z/4[Q:1/4=85]"^T" (g/4a/4g/4 e/4g/4a/4g/4 c'/4g/4e/4c/4) | %43
[Q:1/4=75]"^T" g/!wedge!g/ z/4[Q:1/4=85]"^T" (d/4^f/4d/4 g/)!wedge!g/ z/4 (d/4f/4d/4 | %44
 g/)!wedge!g/ z/4"_cresc." (d/4a/4d/4 b/4d/4b/4d/4 c'/4d/4c'/4d/4) | %45
!f! (d'/b/)(g/b/) (d/g/)(B/d/) |!p! (A/e/){d} (c/B/4A/4) (GT^F) | %47
!f! G z/4 (g/4a/4g/4 e/4g/4a/4g/4 c'/4g/4e/4c/4) | %48
[Q:1/4=75]"^T" !wedge!g/!wedge!g/ z/4[Q:1/4=85]"^T" (g/4a/4g/4 e/4g/4a/4g/4 c'/4g/4e/4c/4) | %49
[Q:1/4=75]"^T" !wedge!g/!wedge!g/ z/4[Q:1/4=85]"^T" (d/4^f/4d/4 g/)!wedge!g/ z/4 d/4f/4d/4 | %50
[Q:1/4=75]"^T" g/!wedge!g/ z/4[Q:1/4=85]"^T""_cresc." (d/4a/4d/4 b/4d/4b/4d/4 c'/4d/4c'/4d/4) | %51
!f! (d'/4b/4d'/4b/4 g/4b/4g/4b/4 d/4g/4d/4g/4 B/4d/4B/4d/4) | %52
!p! A/4(e/4^d/4e/4 =d/4c/4B/4A/4)[Q:1/4=75]"^T" (GT^F) | %53
!f![Q:1/4=85]"^T" (G/>D/)(B/>G/) d!p!{a} (g/^f/4e/4) | %54
 !wedge!d{e} (d/c/4B/4) !wedge!A{d} (c/B/4A/4) | %55
!f! (G/4D/4G/4D/4 B/4G/4B/4G/4 d)!p!{a} (g/^f/4e/4) | %56
[Q:1/4=75]"^T" !wedge!d/!wedge!d/[Q:1/4=85]"^T"{e} (d/c/4B/4)[Q:1/4=75]"^T" !wedge!A/!wedge!A/[Q:1/4=85]"^T"{d} (c/B/4A/4) | %57
 G!wedge![DB]!wedge![B,G] z ::!p! (d>^d e/^f/g/B/) | (d/c/) z/ (B/ c/d/e/^G/) | %60
 (B/A/) z/ (^G/ A/B/c/^F/) | (A/G/e/^F/ A/)G/e/F/ | (A/G/_e/)^F/ (A/G/e/)F/ | %63
!f! (G/A/4B/4 c/4d/4=e/4^f/4 g/4a/4b/4f/4 g/4d/4e/4B/4) | (d2 Tc3/2B/4c/4) | %65
 B2 z/!p!{A} (G/4^F/4 G/)!wedge!B/ | (ed) z/{c} (B/4A/4 B/)!wedge!d/ | %67
 (g=f) z/{e} (d/4^c/4 c/)!wedge!d/ |"_cresc." (c'/bd'^gb/-) | (b/dfed/) | %70
 c2-!p! c/{d}(c/4B/4 c/d/) | (c2 T_B3/2A/4B/4) | (A/c"_cresc."fa_b/) |!f! (a2 g) z | %74
!p! (g>^f) !wedge!=f z |!pp! (f>e) !wedge!_e z | (_e/d/).d/.d/"_cresc." dd | (d{f} _e2){d} c | %78
 B/g/ z/ g/ z/ ^f/ z/ =f/ | (f/e/) z/ _e/ z/ d/ z/ c/ | %80
 (c/B/) z/4"_cresc." (g/4a/4g/4) z/4 (^f/4g/4f/4) z/4 (=f/4g/4f/4) | %81
 z/4 (e/4f/4e/4) z/4 (_e/4f/4e/4) z/4 (d/4e/4d/4) z/4 (c/4d/4c/4) | %82
!f! !wedge!B/{c}(B/4A/4 B/)!wedge!c/ !wedge!d/{=e}(d/4^c/4 d/)!wedge!e/ | %83
!p! f z/4 (g/4e/4g/4 f) z/4 (g/4e/4g/4 | f) z/4!f! (g/4e/4g/4 f/4g/4e/4g/4 f/4g/4e/4g/4 | %85
 f/).e/.d/.c/!p! .B/.c/.d/.e/ | .f/.e/.d/.e/ .f/.e/.f/.^f/ | %87
 !wedge!g(g3/2 =f/4e/4) (e/4d/4c/4B/4) | Tc3/2d/4e/4 G z | %89
!f! !wedge!g/!wedge!g<(g f/4e/4) (e/4d/4c/4B/4) | Tc3/2d/4e/4 G z | .A/.c/.f/.a/ .c'/.f'/ z | %92
 .G/.c/.e/.g/ .c'/.e'/ z |!f!{G} g3 (Tf/e/4f/4) | x2 z2 |!p! A/4c/4d/4e/4 f/4g/4a/4b/4 c' z | %96
 G/4c/4d/4e/4 f/4g/4a/4b/4 c' z |!f! (a/g/).f/.e/ (e/d/).c/.B/ | %98
 (c/4G/4A/4B/4 c/4d/4e/4f/4 g/4a/4b/4c'/4 g/)!wedge!g/ | %99
 z/4 (g/4a/4g/4) z/4 (f/4g/4f/4) z/4 (e/4f/4e/4) z/4 (d/4e/4d/4) | %100
 (c/4G/4A/4B/4 c/4d/4e/4f/4 g/4a/4b/4c'/4 g/)!wedge!g/ | %101
 z/4 (g/4a/4g/4) z/4 (f/4g/4f/4) z/4 (e/4f/4e/4) z/4 (d/4e/4d/4) | %102
!f! !wedge!c/(cd/4e/4 f/)(fg/4a/4) | (g/e/).c'/!wedge!c'/{d'} c'/b/4a/4!p!{a} g/f/4e/4 | %104
 (g>e) d z |{^c} d(=c/4B/4A/4G/4) (^c/d/) (=c/4B/4A/4G/4) | (^d/e/).e/.e/ e z | %107
!mf!{A} (a3/2(3g/4^f/4e/4 d/).d'/.d'/.d'/ | d'-(d'/4b/4d'/4b/4 g/)([Bd]/[ce]/[d=f]/) | %109
!p! (^f/g/) (=f/4e/4d/4c/4) ^f/4(g/4a/4g/4 =f/4e/4d/4)c/4 | (^g/a/).a/.a/ a z | %111
!f! (d'/4e'/4f'/4e'/4 d'/4c'/4b/4a/4 g/4b/4d'/4c'/4 b/4a/4g/4f/4) | !wedge!e(Tf/e/4f/4 g) z | %113
!p!{ab} c'c'/>c'/ c'(b/4a/4g/4f/4) |!f! !wedge!e(Tf/e/4f/4 g) z | %115
!p!{ab} c'c'/>c'/ c'(b/4a/4g/4f/4 |!f! e/)(c'/4d'/4 e'/4d'/4c'/4b/4 a/4g/4f/4e/4 d/4c/4B/4A/4) | %117
 G (F2 E) | z/ .D/.F/.A/ (^c/d/f/a/) | x3 (e/d/) | c z (g/e/!p!c'/)b/ | .a/.g/.f/.e/ .d.e | %122
 (g/^f/=f/) z/ (e/f/g/)!wedge!^g/ | Ta/>.b/.c'/.b/ .a/.=g/.=f/.e/ | %124
 x2 (g3/4a/8b/8!p!!p! c'/)!wedge!b/ | .a/.g/.f/.e/ .d.e | .f"_cresc.".^f.g.^g | %127
 (a/>A/)(f/>d/) c{e}[Bd] | c z/4 (c/4d/4e/4 Tf/4e/4f/4g/4 Ta/4g/4a/4b/4) | %129
 !wedge!c'/!wedge!c'/ z/4 (c/4d/4e/4 (Tf/4e/4f/4g/4) (Ta/4g/4a/4b/4)) | %130
 !wedge!c'/!wedge!c'/ z/4 (g/4b/4g/4 c'/)!wedge!c'/ z/4 (g/4b/4g/4 | %131
 c'/)!wedge!c'/ z/4"_cresc." (g/4b/4g/4 c'/4g/4c'/4g/4 d'/4g/4d'/4g/4) | %132
!f! (e'/c'/)(g/c'/) (e/g/)(c/e/) |!p! A/a/{g} (f/e/4d/4) (cTB) | %134
 c z/4 (c/4d/4e/4 Tf/4e/4f/4g/4) (Ta/4g/4a/4b/4 | %135
 c'/)!wedge!c'/ z/4 (c/4d/4e/4 Tf/4e/4f/4g/4) (Ta/4g/4a/4b/4 | %136
 c'/)!wedge!c'/ z/4!p! (g/4b/4g/4 c'/)!wedge!c'/ z/4 (g/4b/4g/4 | %137
 c'/)!wedge!c'/ z/4"_cresc." g/4b/4g/4 c'/4g/4c'/4g/4 d'/4g/4d'/4g/4 | %138
!f! (e'/4c'/4e'/4c'/4 g/4c'/4g/4c'/4) (e/4g/4e/4g/4 c/4e/4c/4e/4) |!p! (A/a/){g} (f/e/4d/4) (cTB) | %140
 (c/>G/)(e/>c/) g!p!{d'} (c'/b/4a/4) | g{a} (g/f/4e/4) d{g} (f/e/4d/4) | %142
 (c/4G/4c/4G/4 e/4c/4e/4c/4 g)!p!{d'} (c'/b/4a/4) | %143
 !wedge!g/!wedge!g/{a} (g/f/4e/4) !wedge!d/!wedge!d/{g} (f/e/4d/4) | cz/(^g/ a/b/c'/e/) | %145
"_cresc." =g/f/ z/ (e/ f/g/a/^c/) | (e/d/) z/!p! (^c/ d/e/f/B/) | (d/c/a/B/ d/c/a/)B/ | %148
 z/ (d/4c/4) z/ (_a/4B/4) z/ (d/4c/4) z/ (a/4B/4) | (([FG-Bd]2!p! [EGc])) !fermata!z :| %150
V:2
 (E/C/E/C/ E/C/F/C/) |"_simile" E/C/E/C/ E/C/E/C/ | E/C/E/C/ E/C/F/C/ | E/C/E/C/ E/C/E/C/ | %4
!p! F/C/F/C/ F/C/F/C/ | E/C/E/C/ E/C/E/C/ |[K:bass] EE DD | C/(C,/E,/G,/) z2 | x4 | x4 | EE FF | %11
 [CE]2 z2 |!p! .[G,E].[G,D].[G,C].[G,B,] |!f! C2 z2 |!p! .[G,E].[G,D].[G,C].[G,B,] | %15
 !wedge!C,/(C/B,/_B,/ A,/)(A,/G,/F,/) | !wedge!E,!wedge!C, z [C,C] | (E>C) B, z | %18
!p! (G,/B,/D/) z/ (G,/B,/D/) z/ | (G,/C/E/C/ G,/C/E/C/) | (^F,/A,/C/) z/ (F,/A,/C/) z/ | %21
 (G,/B,/).D/D/ (G,/B,/).D/.D/ | %22
"_*) Zur originalen Zählung des Zyklus KV 330-332, zu seiner Überlieferung und zur Neudatierung seiner drei Sonaten (Nr. 10-12) vgl. Vorwort.-\nZu den unterschiedlichen Lesarten im Autograph von KV 330 und im Erstdruck (Artaria, Wien 1784) vgl. Vorwort. Die in allen Sätzen kleiner\ngestochenen dynamischen Zeichen sind dem Erstdruck entnommen.\n" (G,/B,/D/) z/ (G,/B,/D/) z/ | %23
 (G,/C/E/C/ G,/C/E/C/) | [^F,A,CD]4 |[K:treble] (3G,/B,/G/ (3A,/C/G/ (3B,/D/G/ (3G,/B,/G/ | %26
 (3C/E/G/ (3C/E/G/ (3C/E/G/ (3C/E/G/ | (3G,/B,/G/ (3A,/C/G/ (3B,/D/G/ (3G,/B,/G/ | %28
 (3C/E/G/ (3C/E/G/ (3C/E/G/ (3C/E/G/ |[K:bass] G, z C, z | D, (([^D,^F,A,]2 [E,G,])) | %31
!p! [C,E,] z z2 | z!p! (([D,B,] [D,C]2)) | [G,B,]G,, z2 | z4 | z!p! D2 z | [C,G,]2 z [^C,E,] | %37
 (G,^F,) z2 | x4 | x4 |!f![I:staff -1] E[I:staff +1](A, B,C) | (G,/B,/D/B,/ G,/C/E/C/) | %42
 (G,/B,/D/B,/ G,/C/E/C/) | [G,B,D][K:treble]!p! (cBc | B)^F/F/ G/G/A/A/ | B z z2 | %46
[K:bass] z!p! [E,A,][G,B,][A,C] | (G,/B,/D/B,/ G,/C/E/C/) | (G,/B,/D/B,/ G,/C/E/C/) | %49
 [G,B,D][K:treble]!p! (cBc | B)^F/F/ G/G/A/A/ | B z z2 |[K:bass] z!p! [E,A,] ([G,B,][A,C]) | %53
 (G,/D,/)(B,/>G,/) D z |!p! [D,G,B,] z [D,^F,C] z | (G,/4D,/4G,/4D,/4 B,/4G,/4B,/4G,/4 D) z | %56
!p! [D,G,B,] z [D,^F,C] z | [G,B,]!wedge!G,!wedge!G,, z ::[K:treble] (G/B/G/B/ G/B/=F/)_A/ | %59
 (E/G/E/G/ E/G/D/F/) | (C/E/C/E/ C/E/C/_E/) | (B,/D/C/D/ B,/D/C/D/) | (B,/D/C/_E/ B,/D/C/E/) | %63
 [B,D]2 z2 |[K:bass] D,/(B,/G,/B,/ D,/A,/^F,/A,/) | (G,/B,/D/B,/) G, z |!p! (G,/B,/D/B,/) G, z | %67
 (G,/B,/D/B,/) G, z | (^G,B,DF) | (DB,^G,E) | (A,/C/E/C/ A,/C/F/C/) | (G,/D/F/D/ G,/C/E/C/) | %72
 (F,/C/F/C/ F,/A,/D/A,/) | (E,/A,/^C/A,/ E,/A,/C/A,/) | D,/(A,/=C/A,/ D,/G,/B,/G,/) | %75
 C,/(G,/C/G,/ C,/G,/C/G,/) | (F,/_A,/C/A,/ F,/A,/C/A,/) | (^F,/=A,/C/A,/ F,/A,/C/A,/) | %78
!f! G,!p!G,[G,A,][G,B,] | [G,C][G,G][G,F][G,_E] | [G,D][G,B,][G,A,][G,B,] | %81
 [G,C][G,G][G,F][^F,_E] | [G,D] z z2 | Dz/(^C/ D)z/(C/ | D)z/(^C/ D/C/D/C/) | %85
 D2[K:treble] z/ .A,/.B,/.C/ | .D/.C/.B,/.C/ .D/.^C/.D/.^D/ | (E/=C/E/C/ E/C/F/C/) | %88
"_simile" E/C/E/C/ E/C/E/C/ | E/C/E/C/ E/C/F/C/ | %90
"_*) forte in T. 90 gehört möglicherweise schon zu T. 88; vgl. Vorwort." E/C/E/C/ E/C/E/C/ | %91
!p! F/C/F/C/ F/C/F/C/ | E/C/E/C/ E/C/E/C/ |[K:bass] EE DD | C/(C,/E,/G,/) z2 | x4 | x4 | EE FF | %98
 [CE]2 z2 |!p! [G,E].[G,D].[G,C].[G,B,] |!f! C2 z2 |!p! .[G,E].[G,D].[G,C].[G,B,] | %102
 !wedge!C,/(C/B,/_B,/ A,/)(A,/G,/F,/) | !wedge!E,!wedge!C, z [C,C] | E>C B, z | %105
!p! (G,/B,/D/) z/ (G,/B,/D/) z/ | (G,/C/E/C/ G,/C/E/C/) | (^F,/A,/C/) z/ (F,/A,/C/) z/ | %108
 (=F,/G,/B,/D/ =FE/)B,/ |[K:treble] (C/E/G/) z/ (C/E/G/) z/ | (C/F/A/F/ C/F/A/F/) | [B,DFG]4 | %112
 (3C/E/c/ (3D/F/c/ (3E/G/c/ (3C/E/c/ | (3F/A/c/ (3F/A/c/ (3F/A/c/ (3F/A/c/ | %114
 (3C/E/c/ (3D/F/c/ (3E/G/c/ (3C/E/c/ | (3F/A/c/ (3F/A/c/ (3F/A/c/ (3F/A/c/ |[K:bass] C z F, z | %117
 G, (([^G,B,D]2 [A,C])) |!p! [F,A,] z z2 | z ([G,-E] [G,F]2) | [CE]C, z2 | z4 | %122
[K:treble] z!p! G2 z |[K:bass] [F,C]2 z [^F,A,] | (CB,) x2 | x4 | x4 | %127
!f![I:staff -1] A[I:staff +1]D (EF) |[K:treble] (C/E/G/E/ C/F/A/F/) | (C/E/G/E/ C/F/A/F/) | %130
 G!p! G2 G- | GG/G/ G/G/G/G/ | G z z2 |[K:bass] z!p! [A,D]([CE][DF]) | %134
[K:treble]!f! (C/E/G/E/ C/F/A/F/) | (C/E/G/E/ C/F/A/F/) | [EG] G2 G- | GG/G/ G/G/G/G/ | G z z2 | %139
[K:bass] z!p! [A,D] ([CE][DF]) |[K:treble]!f! (C/G,/)(E/>C/) G z |!p! [G,CE] z [G,B,F] z | %142
!f! (C/4G,/4C/4G,/4 E/4C/4E/4C/4) G z |!p! [G,CE] z [G,B,F] z | (E/C/E/C/ F/C/G/C/) | %145
 (A/C/_B/C/ A/C/G/C/ | F/C/E/C/ F/C/D/C/) | (E/C/F/C/ E/C/F/C/ |!p! E/C/F/C/ E/C/F/C/) | %149
[K:bass] [C,C]2- [C,E,G,C] !fermata!z :| %150
V:3
 x4 | x4 | x4 | x4 | x4 | x4 |[K:bass] C/G,/C/G,/ B,/G,/B,/G,/ | x4 | x4 | x4 | %10
 C/G,/C/G,/ D/G,/D/G,/ | x4 | x4 | x4 | x4 | x4 | x4 | G,2 z/!f! G,,/B,,/D,/ | x4 | x4 | x4 | x4 | %22
 x4 | x4 | x4 |[K:treble] x4 | x4 | x4 | x4 |[K:bass] x4 | x4 | x4 | x4 | x4 | x4 | x (^F,G,) x | %36
 x4 | D,2 x2 | x4 | x4 | z C, D,2 | x4 | x4 | x[K:treble] x3 | x4 | x4 |[K:bass] x C, D,2 | x4 | %48
 x4 | x[K:treble] x3 | x4 | x4 |[K:bass] x C, D,2 | x4 | x4 | x4 | x4 | x4 ::[K:treble] x4 | x4 | %60
 x4 | x4 | x4 | x4 |[K:bass] x4 | x4 | x4 | x4 | x4 | x4 | x4 | x4 | x4 | x4 | x4 | x4 | x4 | x4 | %78
 x4 | x4 | x4 | x4 | x4 | G, z G, z | G, z G,G, | G,2[K:treble] x2 | x4 | x4 | x4 | x4 | x4 | x4 | %92
 x4 |[K:bass] C/G,/C/G,/ B,/G,/B,/G,/ | x4 | x4 | x4 | C/G,/C/G,/ D/G,/D/G,/ | x4 | x4 | x4 | x4 | %102
 x4 | x4 | G,2 z/!f! G,,/B,,/D,/ | x4 | x4 | x4 | x4 |[K:treble] x4 | x4 | x4 | x4 | x4 | x4 | x4 | %116
[K:bass] x4 | x4 | x4 | x4 | x4 | x4 |[K:treble] x (B,C) x |[K:bass] x4 | G,2 x2 | x4 | x4 | %127
 x F, G,2 |[K:treble] x4 | x4 | [CE] (FEF | E)F/F/ E/E/B,/B,/ | C x3 |[K:bass] x F, G,2 | %134
[K:treble] x4 | x4 | C (FEF | E)F/F/ E/E/B,/B,/ | C x3 |[K:bass] x F, G,2 |[K:treble] x4 | x4 | %142
 x4 | x4 | x4 | x4 | x4 | x4 | x4 |[K:bass] x4 :| %150
V:4
 x4 | x4 | x4 | x4 | x4 | x4 | x4 | (^de) (C/E/G/E/) | F/C/F/C/ F/C/F/C/ | E/C/E/C/ E/C/E/C/ | x4 | %11
 x4 | x4 | x4 | x4 | x4 | x4 | x4 | x4 | x4 | x4 | x4 | x4 | x4 | x4 | x4 | x4 | x4 | x4 | x4 | %30
 x4 | x4 | e/=G/ x2 ^F | x4 | x4 | x4 | x4 | x2 (D3/4E/8^F/8 G/)F/ | .E/.D/.C/.B,/ .A,.B, | %39
 .C.^C.D.^D | x4 | x4 | x4 | x4 | x4 | x4 | x4 | x4 | x4 | x4 | x4 | x4 | x4 | x4 | x4 | x4 | x4 | %57
 x4 :: x4 | x4 | x4 | x4 | x4 | x4 | x4 | x4 | x4 | x4 | x4 | x4 | x4 | x4 | x4 | x4 | x4 | x4 | %76
 x4 | x4 | x4 | x4 | x4 | x4 | x4 | x4 | x4 | x4 | x4 | x4 | x4 | x4 | x4 | x4 | x4 | x4 | %94
 (^de) (C/E/G/E/) | F/C/F/C/ F/C/F/C/ | E/C/E/C/ E/C/E/C/ | x4 | x4 | x4 | x4 | x4 | x4 | x4 | x4 | %105
 x4 | x4 | x4 | x4 | x4 | x4 | x4 | x4 | x4 | x4 | x4 | x4 | x4 | x4 | (a/=c/) c2 B | x4 | x4 | %122
 x4 | x4 | (g/>e/)!wedge!d (G3/4A/8B/8 c/)!wedge!B/ | .A/.G/.F/.E/ .D.E | .F.^F.G.^G | x4 | x4 | %129
 x4 | x4 | x4 | x4 | x4 | x4 | x4 | x4 | x4 | x4 | x4 | x4 | x4 | x4 | x4 | x4 | x4 | x4 | x4 | %148
 x4 | x4 :| %150

